X:1
T:All Hail to the Prince of Life
T:All Hail to the Prince of Life
T:Isaac Hickman Meredith
T:Fronie Bell Turner, 1900
T:Public Domain Courtesy of the Cyber Hymnal™
T:Public Domain Courtesy of the Cyber Hymnal™
C:Isaac Hickman Meredith
Z:Public Domain
Z:Courtesy of the Cyber Hymnal™
%%score ( 1 2 ) ( 3 4 )
L:1/8
Q:1/4=115
M:4/4
K:Bb
V:1 treble 
V:2 treble 
V:3 bass 
V:4 bass 
V:1
 F2 | [Fd]2 [Ec]>[DB] [Ec]2 [Fd]2 | (B4 F2) F2 | [EG]2 [FA]>[GB] [FA]2 [EG]2 | [DF]6 [DF]2 | %5
w: 1.~All|hail to the Prince of|Life, * All|hail to the Lord di-|vine! For|
w: 2.~Go|for- ward ye sons of|men * And|wel- come the glo- rious|King! Go|
w: 3.~Then|come with your hearts of|love * And|come with your songs of|praise, For|
 [EF]2 [EA]>[EG] F2 [Fe]2 | (d4 B2) [FA]2 | [=EG]2 [EG]>[EG] [FA]2 [_FB]2 | %8
w: o- ver the whole glad|earth * His|glo- ri- ous light shall|
w: meet Him with songs of|joy * That|o- ver His path shall|
w: Christ Who hath ris’n in-|deed * Your|an- thems of vic- t’ry|
 [Ec]6"^Boys’ Voices" (F_F) | E2 F>A d2 c2 | B4 F2"^Girls’ Voices" (=F_F) | E2 F>A d2 c2 | %12
w: shine! He *|comes from the tomb of|night, The sha- *|dow of death laid by,|
w: ring! He *|brings from the grave of|death The bless- *|ing of life and peace,|
w: raise! For *|ne- ver in ag- es|past And ne- *|ver in com- ing years|
 B6"^Full Chorus" F2 | [FB]2 [FB]>[FB] [Fc]2 [Fc]2 | ([Fd]4 [Ee]2) [B=e]2 | %15
w: He comes|as a Con- queror comes,|His * ban-|
w: Who seeks|Him shall find a part|In * joys|
w: Shall Vic-|tor and Mon- arch rise|Like * Him|
 [Bf]2 [Bd]>[FB] [Fd]2 [Ec]2 | [DB]6 ||"^Refrain" F2 | c2"^Boys’ Voices" c2 x8 | %19
w: ner of light on high.||||
w: that shall ne- ver cease.|All|hail|to the|
w: Who the world re- veres.||||
 (B4 F2)"^Chorus, Girls’ Voices" [Bd]2 | [ce]2 [=Bd]>[ce] [df]2 [ce]2 | [Bd]6"^Full Chorus" F2 | %22
w: |||
w: Prince * of|Life! Ho- san- na to|Him we|
w: |||
 [FB]2 [FB]>[FB] [Fc]2 [Fc]2 | [Fd]4 [Ee]2 [B=e]2 | [Bf]2 [Bd]>[FB] [Fd]2 [Ec]2 | [DB]6 |] %26
w: ||||
w: sing— He comes as a|might- y Vic-|tor, He comes as a|con-|
w: ||||
V:2
 F2 | x8 | D6 F2 | x8 | x8 | x4 F2 x2 | F6 x2 | x8 | x8 | E2 F>A d2 c2 | (B4 _F2) x2 | %11
 E2 F>A d2 c2 | B6 F2 | x8 | x8 | x8 | x6 || F2 | E8 =B>c d2 | D6 x2 | x8 | x6 F2 | x8 | x8 | x8 | %25
 x6 |] %26
V:3
 [F,A,]2 | [B,,B,]2 [B,,F,]>[B,,F,] [F,A,]2 [F,A,]2 | (F,4 B,2) [D,B,]2 | %3
 [E,B,]2 [E,B,]>[E,B,] [E,E]2 [E,B,]2 | [B,,B,]6 [B,,B,]2 | [F,A,]2 [F,C]>[F,B,] [F,A,]2 [F,C]2 | %6
 B,6 [D,B,]2 | [C,B,]2 [C,B,]>[C,B,] [C,A,]2 [C,G,]2 | [F,A,]6 z2 | F,,2 [F,A,CE]2 A,,2 [F,A,CE]2 | %10
 (B,,2 [F,B,D]2 [F,B,D]2) z2 | F,,2 [F,A,CE]2 A,,2 [F,A,CE]2 | (B,,2 [F,B,D]2 [F,B,D]2) A,2 | %13
 [D,B,]2 [D,B,]>[D,B,] [F,A,]2 [F,A,]2 | B,4- [G,B,]2 [_G,^C]2 | %15
 [F,D]2 [F,F]>[F,D] [F,B,]2 [F,A,]2 | [B,,B,]6 || z2 | F,,2 [F,A,]2 C,2 [F,A,]2 x4 | %19
 (B,,2 [F,B,]2 [F,B,]2) [F,B,D]2 | F,,2 [F,A,CE]2 A,,2 [F,A,E]2 | (B,,2 [F,B,D]2 [F,B,D]2) A,2 | %22
 [D,B,]2 [D,B,]>[D,B,] [F,A,]2 [F,A,]2 | B,4 [G,B,]2 [_G,^C]2 | %24
 [F,D]2 [F,F]>[F,D] [F,B,]2 [F,A,]2 | [B,,B,]6 |] %26
V:4
 x2 | x8 | B,,6 x2 | x8 | x8 | x8 | (B,,4 D,2) x2 | x8 | x8 | F,,2 A,,2 x4 | B,,2 x6 | %11
 F,,2 A,,2 x4 | B,,2 x2 (F,E,) x2 | x8 | B,2 _A,2 x4 | x8 | x6 || x2 | F,,2 C,2 x8 | B,,2 x6 | %20
 F,,2 A,,2 x4 | B,,2 x2 (F,E,) x2 | x8 | (B,2 _A,2) x4 | x8 | x6 |] %26

